icons/shield-x-16.svg

<svg width="16" height="16" viewBox="0 0 16 16" xmlns="http://www.w3.org/2000/svg">
  <path fill-rule="evenodd" clip-rule="evenodd" d="M8.53336 0.133063C8.18645 0.0220524 7.81355 0.0220518 7.46664 0.133062L2.21664 1.81306C1.49183 2.045 1 2.71878 1 3.4798V6.99985C1 8.5659 1.31923 10.1823 2.3032 11.682C3.28631 13.1805 4.88836 14.4946 7.33508 15.5367C7.75909 15.7173 8.24091 15.7173 8.66493 15.5367C11.1116 14.4946 12.7137 13.1805 13.6968 11.682C14.6808 10.1823 15 8.5659 15 6.99985V3.4798C15 2.71878 14.5082 2.045 13.7834 1.81306L8.53336 0.133063ZM7.92381 1.5617C7.97336 1.54584 8.02664 1.54584 8.07619 1.5617L13.3262 3.2417C13.4297 3.27483 13.5 3.37109 13.5 3.4798V6.99985C13.5 8.35818 13.2253 9.66618 12.4426 10.8592C11.6591 12.0535 10.3216 13.2007 8.07713 14.1567C8.02866 14.1773 7.97134 14.1773 7.92287 14.1567C5.67838 13.2007 4.34094 12.0535 3.55737 10.8592C2.77465 9.66618 2.5 8.35818 2.5 6.99985V3.4798C2.5 3.37109 2.57026 3.27483 2.67381 3.2417L7.92381 1.5617ZM6.78033 5.21955C6.48744 4.92665 6.01256 4.92665 5.71967 5.21955C5.42678 5.51244 5.42678 5.98731 5.71967 6.28021L6.93934 7.49988L5.71967 8.71955C5.42678 9.01244 5.42678 9.48731 5.71967 9.78021C6.01256 10.0731 6.48744 10.0731 6.78033 9.78021L8 8.56054L9.21967 9.78021C9.51256 10.0731 9.98744 10.0731 10.2803 9.78021C10.5732 9.48731 10.5732 9.01244 10.2803 8.71955L9.06066 7.49988L10.2803 6.28021C10.5732 5.98731 10.5732 5.51244 10.2803 5.21955C9.98744 4.92665 9.51256 4.92665 9.21967 5.21955L8 6.43922L6.78033 5.21955Z"/>
</svg>

<svg xmlns="http://www.w3.org/2000/svg" width="16" height="16" viewBox="0 0 16 16"><path fill-rule="evenodd" d="M8.533.133a1.75 1.75 0 00-1.066 0l-5.25 1.68A1.75 1.75 0 001 3.48V7c0 1.566.32 3.182 1.303 4.682.983 1.498 2.585 2.813 5.032 3.855a1.7 1.7 0 001.33 0c2.447-1.042 4.049-2.357 5.032-3.855C14.68 10.182 15 8.566 15 7V3.48a1.75 1.75 0 00-1.217-1.667L8.533.133zm-.61 1.429a.25.25 0 01.153 0l5.25 1.68a.25.25 0 01.174.238V7c0 1.358-.275 2.666-1.057 3.86-.784 1.194-2.121 2.34-4.366 3.297a.2.2 0 01-.154 0c-2.245-.956-3.582-2.104-4.366-3.298C2.775 9.666 2.5 8.36 2.5 7V3.48a.25.25 0 01.174-.237l5.25-1.68zM6.78 5.22a.75.75 0 10-1.06 1.06L6.94 7.5 5.72 8.72a.75.75 0 001.06 1.06L8 8.56l1.22 1.22a.75.75 0 101.06-1.06L9.06 7.5l1.22-1.22a.75.75 0 10-1.06-1.06L8 6.44 6.78 5.22z"/></svg>
